src/topics/icons/sagui.svg

<svg height="221" preserveAspectRatio="xMidYMid" viewBox="0 0 256 221" width="256" xmlns="http://www.w3.org/2000/svg"><path d="m229.751119 133.348846c16.21029-6.822663 27.13608-20.833259 26.192163-39.0270647-.262095-5.0522205-1.389801-10.0510659-3.266291-14.7402264-1.732484-4.3292409-4.525162-7.9528966-6.512781-12.1145781-4.089809-8.5632557-5.966561-18.0644127-9.357505-26.9042592-14.587413-38.02807731-62.419477-49.5619049-96.985103-33.56715149-15.510927 7.17746879-27.486275 20.02225969-35.1406 35.26618679 11.859229-4.1168504 25.286164-1.7196228 35.037125 6.2287835-.383281.5292552-.756846 1.061729-1.112987 1.6012515-16.273446-12.0497423-40.0256985-6.4377303-49.4579103 11.5004696-9.1173898 17.3394461-1.1447219 39.5481585 16.8129673 47.0616875 10.879088 4.551832 23.626367 2.916905 33.021172-4.243355.404485.495381.824438.980043 1.253777 1.453498-10.939116 9.250214-26.694884 11.270287-39.562418 5.001985 4.662039 7.525425 11.196655 13.711842 18.647864 18.374745-5.516857 10.081708-9.25982 21.438584-9.524723 33.023138-.240812 10.530708.323251 21.90364 4.101139 31.836017-9.589519-.234833-20.5790258-2.061141-27.3181357-9.642989-6.3654399-7.161465-7.5873776-17.638598-7.5730008-26.865443.0177249-11.376615 2.5122145-22.271084 4.0250793-33.468322 1.5063257-11.148869.5332086-22.820436-4.1903424-33.1148537-9.5037026-20.7121723-35.1036394-32.883756-56.4223242-23.1388898-20.84044715 9.5262484-30.92158285 38.0261555-13.54956023 55.8158205 7.07190033 7.241906 17.83633273 11.076045 27.69455653 8.100399 9.237105-2.788188 16.606465-11.197079 17.545242-20.993493.9370829-9.778741-5.7200128-20.0284463-15.5168747-22.0387288-4.9662656-1.0190572-9.7529366 2.7467481-9.4110341 8.0129372.1490613 2.2960001 1.3578028 4.4613756 3.2315622 5.7808436 2.0797042 1.464481 4.724069 1.372832 5.9842537 3.934957 2.4076697 4.895113-3.0115101 10.121637-7.4510398 10.828891-5.3482529.852055-10.8170229-2.975301-13.5072759-7.397728-6.2431309-10.2629139 1.0093026-23.0457179 10.7654495-27.7748216 9.3697214-4.5417911 20.627645-1.853665 28.4650111 4.582515 6.7859896 5.5727592 10.497106 13.9111576 11.4771822 22.5655336 1.2268218 10.833197-2.0416877 21.522509-3.3398294 32.203395-1.2963897 10.666472-1.8036863 21.699939.3987801 32.283452 2.0358256 9.782756 6.6762128 18.894821 14.4830259 25.234887 7.7972685 6.332356 17.658833 9.188241 27.4882827 10.138913 6.162902.596051 12.379307.478992 18.543746-.031318 2.864011 1.784868 6.216287 3.158468 10.119641 4.100581 1.396944 4.565637 5.592354 7.749276 10.409966 7.749276h97.739021c12.078625 0 12.156668-14.761358 10.652902-23.418568-1.561299-8.988594-6.146542-17.30263-13.758223-22.44026-.056484-16.001629-4.592937-29.064759-11.13195-41.758113zm-97.443763-42.8007936c-2.86061 3.0083689-6.874135 4.892093-11.322646 4.892093-8.661738 0-15.708134-7.1098638-15.708134-15.8496482 0-8.7397852 7.046396-15.849649 15.708134-15.849649 4.286438 0 8.173486 1.7451109 11.010554 4.5632918-.497115 3.5116977-.743217 7.4053729-.743217 11.8173605 0 3.8958218.368117 7.3402594 1.055309 10.4265519zm36.101494 1.082476c1.555825-8.0487589 7.113555-15.0584417 10.584654-22.3681382 3.040565-6.4030605 4.982389-13.4395309 9.032362-19.3021412 7.335222-10.6182103 19.809759-16.9774861 32.640031-16.4026447 6.414519 8.872476 8.681957 19.6173892 12.19905 29.8196012 1.54565 4.4835529 3.224118 8.9279848 5.758746 12.9463497 2.992379 4.7440338 5.258006 9.7071621 6.096124 15.3157039l-2.663666-.8616861c-3.967177-1.6139304-6.502172 4.5383864-3.890001 7.1741169l5.12952 5.1757181c.285281.287851.605618.512603.938613.708288-4.507778 17.813206-25.499705 23.019195-41.254686 24.604814-18.31101-1.194407-38.540813-16.271198-34.570747-36.8099816zm52.441466 116.6867626h-73.164485-.009571-.019695c-.250304-2.539021-.560111-4.866631 1.027789-6.98813 1.753847-2.343215 4.681326-3.871073 7.243053-5.107133 7.820613-3.77357 16.588438-5.788051 25.097832-7.205104 8.745689-1.456398 18.843259-2.97917 27.455709-.159691 8.205429 2.686232 13.689502 10.589211 12.369368 19.460058zm3.349086-3.429945c-.80175-11.936075-9.600456-19.248514-20.996733-20.504498 7.359224-.548146 15.442705-.548862 21.501778 4.355737 5.526534 4.473538 8.006989 12.60976 7.019638 19.578706h-7.581561c.134658-1.142105.133923-2.283892.056878-3.429945zm9.572017-8.257705c-2.35785-7.418078-8.163074-12.667441-15.567358-14.680041 7.222464-.199382 14.637646 1.241332 19.463792 7.134147 4.153068 5.070993 5.818721 12.763913 4.941687 19.233544h-7.594796c.45426-3.864345-.068878-7.992827-1.243325-11.68765zm-1.510174-22.866473c0 2.322761-.19059 4.67692-.626127 6.958957-4.197681-1.72732-8.728751-2.217944-13.229149-2.066732-3.567196-12.674303-1.702024-26.821618 5.421522-37.911309 4.740593 10.208278 8.433754 21.63701 8.433754 33.019084zm-23.878376-94.6586188c-.213226-6.9821941 3.599049-12.7662446 8.515001-12.9191652 4.915952-.1528544 9.073956 5.3834197 9.287208 12.365613.213278 6.9821806-3.59897 12.7662311-8.514922 12.9191517-4.915952.1528552-9.073983-5.3834189-9.287287-12.3655995z" fill="#753f8c"/></svg>

<?xml version="1.0" encoding="UTF-8" standalone="no"?>
<svg width="256px" height="221px" viewBox="0 0 256 221" version="1.1" xmlns="http://www.w3.org/2000/svg" xmlns:xlink="http://www.w3.org/1999/xlink" preserveAspectRatio="xMidYMid">
    <g>
        <path d="M229.751119,133.348846 C245.961409,126.526183 256.887199,112.515587 255.943282,94.3217813 C255.681187,89.2695608 254.553481,84.2707154 252.676991,79.5815549 C250.944507,75.252314 248.151829,71.6286583 246.16421,67.4669768 C242.074401,58.9037211 240.197649,49.4025641 236.806705,40.5627176 C222.219292,2.53464029 174.387228,-8.9991873 139.821602,6.99556611 C124.310675,14.1730349 112.335327,27.0178258 104.681002,42.2617529 C116.540231,38.1449025 129.967166,40.5421301 139.718127,48.4905364 C139.334846,49.0197916 138.961281,49.5522654 138.60514,50.0917879 C122.331694,38.0420456 98.5794415,43.6540576 89.1472297,61.5922575 C80.0298399,78.9317036 88.0025078,101.140416 105.960197,108.653945 C116.839285,113.205777 129.586564,111.57085 138.981369,104.41059 C139.385854,104.905971 139.805807,105.390633 140.235146,105.864088 C129.29603,115.114302 113.540262,117.134375 100.672728,110.866073 C105.334767,118.391498 111.869383,124.577915 119.320592,129.240818 C113.803735,139.322526 110.060772,150.679402 109.795869,162.263956 C109.555057,172.794664 110.11912,184.167596 113.897008,194.099973 C104.307489,193.86514 93.3179822,192.038832 86.5788723,184.456984 C80.2134324,177.295519 78.9914947,166.818386 79.0058715,157.591541 C79.0235964,146.214926 81.518086,135.320457 83.0309508,124.123219 C84.5372765,112.97435 83.5641594,101.302783 78.8406084,91.0083653 C69.3369058,70.296193 43.736969,58.1246093 22.4182842,67.8694755 C1.57783705,77.3957239 -8.50329865,105.895631 8.86872397,123.685296 C15.9406243,130.927202 26.7050567,134.761341 36.5632805,131.785695 C45.8003855,128.997507 53.1697455,120.588616 54.1085225,110.792202 C55.0456054,101.013461 48.3885097,90.7637557 38.5916478,88.7534732 C33.6253822,87.734416 28.8387112,91.5002213 29.1806137,96.7664104 C29.329675,99.0624105 30.5384165,101.227786 32.4121759,102.547254 C34.4918801,104.011735 37.1362449,103.920086 38.3964296,106.482211 C40.8040993,111.377324 35.3849195,116.603848 30.9453898,117.311102 C25.5971369,118.163157 20.1283669,114.335801 17.4381139,109.913374 C11.194983,99.6504601 18.4474165,86.8676561 28.2035634,82.1385524 C37.5732848,77.5967613 48.8312084,80.2848874 56.6685745,86.7210674 C63.4545641,92.2938266 67.1656805,100.632225 68.1457567,109.286601 C69.3725785,120.119798 66.104069,130.80911 64.8059273,141.489996 C63.5095376,152.156468 63.002241,163.189935 65.2047074,173.773448 C67.240533,183.556204 71.8809202,192.668269 79.6877333,199.008335 C87.4850018,205.340691 97.3465663,208.196576 107.176016,209.147248 C113.338918,209.743299 119.555323,209.62624 125.719762,209.11593 C128.583773,210.900798 131.936049,212.274398 135.839403,213.216511 C137.236347,217.782148 141.431757,220.965787 146.249369,220.965787 L243.98839,220.965787 C256.067015,220.965787 256.145058,206.204429 254.641292,197.547219 C253.079993,188.558625 248.49475,180.244589 240.883069,175.106959 C240.826585,159.10533 236.290132,146.0422 229.751119,133.348846 L229.751119,133.348846 L229.751119,133.348846 Z M132.307356,90.5480524 C129.446746,93.5564213 125.433221,95.4401454 120.98471,95.4401454 C112.322972,95.4401454 105.276576,88.3302816 105.276576,79.5904972 C105.276576,70.850712 112.322972,63.7408482 120.98471,63.7408482 C125.271148,63.7408482 129.158196,65.4859591 131.995264,68.30414 C131.498149,71.8158377 131.252047,75.7095129 131.252047,80.1215005 C131.252047,84.0173223 131.620164,87.4617599 132.307356,90.5480524 L132.307356,90.5480524 L132.307356,90.5480524 Z M168.40885,91.6305284 C169.964675,83.5817695 175.522405,76.5720867 178.993504,69.2623902 C182.034069,62.8593297 183.975893,55.8228593 188.025866,49.960249 C195.361088,39.3420387 207.835625,32.9827629 220.665897,33.5576043 C227.080416,42.4300803 229.347854,53.1749935 232.864947,63.3772055 C234.410597,67.8607584 236.089065,72.3051903 238.623693,76.3235552 C241.616072,81.067589 243.881699,86.0307173 244.719817,91.6392591 L242.056151,90.777573 C238.088974,89.1636426 235.553979,95.3159594 238.16615,97.9516899 L243.29567,103.127408 C243.580951,103.415259 243.901288,103.640011 244.234283,103.835696 C239.726505,121.648902 218.734578,126.854891 202.979597,128.44051 C184.668587,127.246103 164.438784,112.169312 168.40885,91.6305284 L168.40885,91.6305284 L168.40885,91.6305284 Z M220.850316,208.317291 L147.685831,208.317291 L147.67626,208.317291 L147.656565,208.317291 C147.406261,205.77827 147.096454,203.45066 148.684354,201.329161 C150.438201,198.985946 153.36568,197.458088 155.927407,196.222028 C163.74802,192.448458 172.515845,190.433977 181.025239,189.016924 C189.770928,187.560526 199.868498,186.037754 208.480948,188.857233 C216.686377,191.543465 222.17045,199.446444 220.850316,208.317291 L220.850316,208.317291 L220.850316,208.317291 Z M224.199402,204.887346 C223.397652,192.951271 214.598946,185.638832 203.202669,184.382848 C210.561893,183.834702 218.645374,183.833986 224.704447,188.738585 C230.230981,193.212123 232.711436,201.348345 231.724085,208.317291 L224.142524,208.317291 C224.277182,207.175186 224.276447,206.033399 224.199402,204.887346 L224.199402,204.887346 L224.199402,204.887346 Z M233.771419,196.629641 C231.413569,189.211563 225.608345,183.9622 218.204061,181.9496 C225.426525,181.750218 232.841707,183.190932 237.667853,189.083747 C241.820921,194.15474 243.486574,201.84766 242.60954,208.317291 L235.014744,208.317291 C235.469004,204.452946 234.945866,200.324464 233.771419,196.629641 L233.771419,196.629641 L233.771419,196.629641 Z M232.261245,173.763168 C232.261245,176.085929 232.070655,178.440088 231.635118,180.722125 C227.437437,178.994805 222.906367,178.504181 218.405969,178.655393 C214.838773,165.98109 216.703945,151.833775 223.827491,140.744084 C228.568084,150.952362 232.261245,162.381094 232.261245,173.763168 L232.261245,173.763168 L232.261245,173.763168 Z M208.382869,79.1045492 C208.169643,72.1223551 211.981918,66.3383046 216.89787,66.185384 C221.813822,66.0325296 225.971826,71.5688037 226.185078,78.550997 C226.398356,85.5331776 222.586108,91.3172281 217.670156,91.4701487 C212.754204,91.6230039 208.596173,86.0867298 208.382869,79.1045492 L208.382869,79.1045492 L208.382869,79.1045492 Z" fill="#753F8C"></path>
    </g>
</svg>
